!!!!SEGMENT: pl-sa--68-a-ii-8--004_mrozowski-tadeusz--missa-ex-g-credo.krn
!!!cenid: 17xx:329
!!!COM: Mrozowski, Tadeusz
!!!COM-rismID: pe30020313
!!!CDT: <1790->1810
!!!CNT:
!!!OPR: Missa ex G
!!!OTL: Credo
!!!OMV: 004
!!!PDT:
!!!AGN: Sacred; Mass
!!!SMS-siglum: PL-SA
!!!SMS-shelfmark: 68/A II 8
!!!SMS-shelfwork: 001-004 M
!!!SMS-variant:
!!!SMS-altvar:
!!!NIFC-rismSourceID: 1001035348
!!!NIFC-rismChildID: 1001035348
!!!NIFC-islandoraID: none
!!!URL-pdf-islandora:
!!!URL-scan: https://bc.bdsandomierz.pl/dlibra/publication/1339/edition/1307/content @EN{Scan in the Sandomierz Diocese Digital Library} @PL{Skany w portalu Cyfrowa Biblioteka Diecezjalna w Sandomierzu}
!!!ONB-nifc: UWAGA: części Mszy: Kyrie, Gloria, Symphonia post Epistolam, Credo, Tantum Ergo Sacramentum, Sanctus, Agnus, Dona nobis, Presto
!!!AIN: 1 cbass 1 soprn 2 violn
!!!key: G
**kern	**dynam	**kern	**dynam	**kern	**dynam	**kern	**text
*part4	*part4	*part3	*part3	*part2	*part2	*part1	*part1
*staff4	*	*staff3	*	*staff2	*	*staff1	*staff1
*I"Baſso	*	*I"Violino 2do.	*	*I"Violino. Primo.	*	*I"Canto Solo.	*
*I'cb	*	*I'vl 2	*	*I'vl 1	*	*I'S solo	*
*Icbass	*	*Ivioln	*	*Ivioln	*	*Isoprn	*
*ICstr	*	*ICstr	*	*ICstr	*	*ICvox	*
*IGcont	*	*IGacmp	*	*IGacmp	*	*IGsolo	*
*clefF4	*	*clefG2	*	*clefG2	*	*clefC1	*
*k[f#]	*	*k[f#]	*	*k[f#]	*	*k[f#]	*
*G:	*	*G:	*	*G:	*	*G:	*
*M2/2	*	*M2/2	*	*M2/2	*	*M2/2	*
*met(c|)	*	*met(c|)	*	*met(c|)	*	*met(c|)	*
=1	=1	=1	=1	=1	=1	=1	=1
*	*	*	*	*2\right	*below	*2\right	*
!LO:TX:a:t=Allo.	!	!LO:TX:a:i:t=allo.	!	!LO:TX:a:i:t=Allo.	!	!LO:TX:a:t=Allo	!
!LO:TX:b:t=Pa-\ntrem.	!	!	!	!	!	!	!
!LO:TX:a:t=P:problem=oznaczenie metrum w postaci przekreślonej dwójki	!	!LO:TX:a:t=P:problem=oznaczenie metrum w postaci przekreślonej dwójki	!	!LO:TX:a:t=P:problem=oznaczenie metrum w postaci przekreślonej dwójki	!	!LO:TX:a:t=P:problem=oznaczenie metrum w postaci przekreślonej dwójki	!
4GG/	.	2b/	.	2dd\	.	2dd\	Pat-
4G\	.	.	.	.	.	.	.
4G\	.	4g/	.	4b\	.	4b\	-rem
4G\	.	4ee\	.	4gg\	.	4gg\	Om-
=2	=2	=2	=2	=2	=2	=2	=2
4GG/	.	4ee'\	f	4gg\	pp	4gg\	-ni-
4G\	.	4dd'\	.	4ff#\	.	4ff#\	-po-
4G\	.	4cc'\	.	4ee\	.	4ee\	-ten-
4G\	.	4b'\	.	4dd\	.	4dd\	-tem
=3	=3	=3	=3	=3	=3	=3	=3
4G\	.	4b/	.	4dd\	.	4dd\	fa-
4r	.	4g/	.	4b\	.	4b\	.
4r	.	4a/	.	4cc\	.	4cc\	-cto-
4D\	.	4f#/	.	4a\	.	4a\	-rem
=4	=4	=4	=4	=4	=4	=4	=4
4G\	.	4g/	.	4b\	.	4b\	Cae-
4GG/	.	4g/	.	4b\	.	4b\	-li.
2rBB	.	8g/L	.	(8b\L	.	2r	.
.	.	8f#/	.	8a\	.	.	.
.	.	8g/	.	8b\	.	.	.
.	.	8a/J	.	8cc\J)	.	.	.
=5	=5	=5	=5	=5	=5	=5	=5
4G\	.	4b/	.	4dd\	.	4dd\	Cae-
4G\	.	4g/	.	4b\	.	4b\	.
4D\	.	4a/	.	4cc\	.	4cc\	-li
4D\	.	4f#/	.	4a\	.	4a\	et
=6	=6	=6	=6	=6	=6	=6	=6
4D\	.	4c/	.	4a/	.	4a\	ter-
!	!	!	!	!	!	!LO:SIC:v:l:s=rae	!
4GG/	.	4B/	.	4g/	.	4g\	-ra
2rBB	.	2re	.	2rg	.	2re	.
!	!	!	!	!LO:LB:g=original	!	!	!
=7	=7	=7	=7	=7	=7	=7	=7
4r	.	4f#/	pp	4a/	.	4a\	et
4D\	.	4f#/	.	4a/	.	4a\	in-
4D\	.	4f#/	.	4a/	.	4a\	-vi-
4D\	.	8b/L	.	8dd\L	.	8dd\L	-si-
.	.	8a/J	.	8cc\J	.	8cc\J	.
=8	=8	=8	=8	=8	=8	=8	=8
4r	.	4.a/	.	4.cc\	.	4.cc\	-bi-
4D\	.	.	.	.	.	.	.
.	.	8g/	.	8b\	.	8b\	-li-
4D\	.	4f#/	.	4a/	.	4a\	-um
4D\	.	4r	.	4r	.	4r	.
!LO:LB:g=original	!	!	!	!	!	!LO:LB:g=original	!
=9	=9	=9	=9	=9	=9	=9	=9
4r	.	4g/	.	4b\	.	4b\	o-
4G\	.	4g/	.	4b\	.	4b\	.
4G\	.	4g/	.	4b\	.	4b\	.
4G\	.	8cc/L	.	8ee\L	.	8ee\L	.
.	.	8b/J	.	8dd\J	.	8dd\J	.
=10	=10	=10	=10	=10	=10	=10	=10
4r	.	4.b/	.	4.dd\	.	4.dd\	.
4G\	.	.	.	.	.	.	.
.	.	8a/	.	8cc\	.	8cc\	-mni-
4G\	.	4g/	.	4b\	.	4b\	-um
4G\	.	4r	.	4r	.	4r	.
=11	=11	=11	=11	=11	=11	=11	=11
4G\	.	4b\	.	4gg\	.	4gg\	et
4D\	.	4b\	.	4dd\	.	4dd\	in-
4E\	.	4cc\	.	4ee\	.	4ee\	-vi-
4F#\	.	4a\	.	4ff#\	.	4ff#\	-si-
=12	=12	=12	=12	=12	=12	=12	=12
4G\	.	4.b 4.d/	.	4.gg\	.	4.gg\	-bi-
4D\	.	.	.	.	.	.	.
.	.	8b 8d/	.	8gg\	.	8gg\	-li-
4GG/	.	4b 4d/	.	4gg\	.	4gg\	-um
4r	.	4r	.	4r	.	4r	.
!	!	!LO:LB:g=original	!	!	!	!	!
=13	=13	=13	=13	=13	=13	=13	=13
!	!	!	!	!	!	!LO:TX:a:t=9.	!
4GG/	.	8B/L	.	4gg\	.	00r	.
.	.	8d/	.	.	.	.	.
4GG/	.	8B/	.	8g/L	f	.	.
.	.	8d/J	.	8g/J	.	.	.
*	*	*rep	*	*	*	*	*
4GG/	.	8B/L	f	4g/	.	.	.
.	.	8d/	.	.	.	.	.
4GG/	.	8B/	.	8b/L	.	.	.
.	.	8d/J	.	8g/J	.	.	.
*	*	*Xrep	*	*	*	*	*
=14	=14	=14	=14	=14	=14	=14	=14
4D\	.	4.f#/	.	4.a/	.	.	.
4D\	.	.	.	.	.	.	.
.	.	8g/	.	8b/	.	.	.
4D\	.	8a\L	.	(8cc\L	.	.	.
.	.	8cc\	.	8ee\	.	.	.
4D\	.	8b\	.	8dd\	.	.	.
.	.	8a\J	.	8cc\J)	.	.	.
=15	=15	=15	=15	=15	=15	=15	=15
4G\	.	8g/L	.	4gg\	.	.	.
.	.	8b/	.	.	.	.	.
4G\	.	8g/	.	8b\L	.	.	.
.	.	8b/J	.	8b\J	.	.	.
*	*	*rep	*	*	*	*	*
4G\	.	8g/L	.	4b\	.	.	.
.	.	8b/	.	.	.	.	.
4G\	.	8g/	.	8dd\L	.	.	.
.	.	8b/J	.	8b\J	.	.	.
*	*	*Xrep	*	*	*	*	*
=16	=16	=16	=16	=16	=16	=16	=16
4D\	.	4.a/	.	4.cc\	.	.	.
4D\	.	.	.	.	.	.	.
.	.	8b/	.	8dd\	.	.	.
4D\	.	(8cc\L	.	(8ee\L	.	.	.
.	.	8b\	.	8dd\	.	.	.
4D\	.	8a\	.	8cc\	.	.	.
.	.	8g\J)	.	8b\J)	.	.	.
!LO:LB:g=original	!	!	!	!LO:LB:g=original	!	!	!
=17	=17	=17	=17	=17	=17	=17	=17
4GG/	.	4r	.	8b\L	.	00r	.
.	.	.	.	8gg\	.	.	.
4r	.	4b 4d/	.	8ff#\	.	.	.
.	.	.	.	8gg\J	.	.	.
2r	.	4b 4d/	.	8aa\L	.	.	.
.	.	.	.	8gg\	.	.	.
.	.	4b 4d/	.	8ff#\	.	.	.
.	.	.	.	8gg\J	.	.	.
=18	=18	=18	=18	=18	=18	=18	=18
4r	.	4r	.	8gg\L	.	.	.
.	.	.	.	8ee\J	.	.	.
4c\	.	4cc 4e/	.	2ee\	.	.	.
4C/	.	4cc 4e/	.	.	.	.	.
4c\	.	4cc 4e/	.	4gg\	.	.	.
=19	=19	=19	=19	=19	=19	=19	=19
4r	.	4r	.	8gg\L	.	.	.
.	.	.	.	8dd\J	.	.	.
4B\	.	4b 4d/	.	4dd\	.	.	.
4BB/	.	4b 4d/	.	8dd\L	.	.	.
.	.	.	.	8ee\	.	.	.
4B\	.	4b 4d/	.	8ff#\	.	.	.
.	.	.	.	8gg\J	.	.	.
=20	=20	=20	=20	=20	=20	=20	=20
4r	.	4cc/	.	8aa\L	.	.	.
.	.	.	.	8cc\J	.	.	.
4D\	.	(4a/	.	2cc\	.	.	.
4D\	.	4a/	.	.	.	.	.
4D\	.	4g/)	.	4b\	.	.	.
=21	=21	=21	=21	=21	=21	=21	=21
8d\L	f	8f#/L	.	8a/L	.	1r	.
8A\	.	8d/	.	8d/	.	.	.
8F#\	.	8f#/	f	8f#/	f	.	.
8A\J	.	8a/J	.	8a/J	.	.	.
4D\	.	4dd\	.	4dd\	.	.	.
4r	.	4r	.	4r	.	.	.
=22	=22	=22	=22	=22	=22	=22	=22
4r	p	4r	p	4dd\	p	4dd\	et
4D\	.	4f#/	.	4dd\	.	4dd\	in
!	!	!	!	!	!	!LO:SIC:v:l:s=u	!
4D\	.	4f#/	.	4dd\	.	4dd\	un-
!	!	!	!	!	!	!LO:SIC:v:l:s=num	!
4D\	.	4f#/	.	4dd\	.	4dd\	-nŭn
=23	=23	=23	=23	=23	=23	=23	=23
4r	.	4f#/	.	4.dd\	.	4.dd\	Do-
4AA/	.	4e/	.	.	.	.	.
.	.	.	.	8cc#X\	.	8cc#X\	-mi-
4AA/	.	2e/	.	2cc#\	.	2cc#\	-num
4AA/	.	.	.	.	.	.	.
=24	=24	=24	=24	=24	=24	=24	=24
4r	.	4r	.	2gg\	.	2gg\	Je-
4AA/	.	4ee\	.	.	.	.	.
4AA/	.	4ee\	.	4gg\	.	4gg\	.
4AA/	.	4ee\	.	4gg\	.	4gg\	-sum
!LO:LB:g=original	!	!	!	!	!	!LO:LB:g=original	!
=25	=25	=25	=25	=25	=25	=25	=25
4r	.	4ee\	.	4gg\	.	4gg\	Chri-
4D\	.	4dd\	.	4ff#\	.	4ff#\	.
*	*	*2\right	*	*	*	*	*
4D\	.	2dd\	.	2ff#\	.	2ff#\	-stum
4D\	.	.	.	.	.	.	.
!	!	!LO:LB:g=original	!	!	!	!	!
=26	=26	=26	=26	=26	=26	=26	=26
4r	.	2ff#\	.	2aa\	.	2aa\	Fi-
4D\	.	.	.	.	.	.	.
4D\	.	4ff#\	.	4aa\	.	4aa\	-li-
4D\	.	4dd\	.	4ff#\	.	4ff#\	-um
=27	=27	=27	=27	=27	=27	=27	=27
4r	.	4.ee\	.	4.gg\	.	4.gg\	De-
4AA/	.	.	.	.	.	.	.
.	.	8dd\	.	8ff#\	.	8ff#\	.
4AA/	.	4cc#X\	.	2ee\	.	2ee\	-i
4AA/	.	4r	.	.	.	.	.
=28	=28	=28	=28	=28	=28	=28	=28
4F#\	.	4dd|\	.	4ff#\	.	4ff#\	u-
4D\	.	4ff#|\	.	4aa\	.	4aa\	.
4E\	.	4ee|\	.	4gg\	.	4gg\	.
4F#\	.	4dd|\	.	4ff#\	.	4ff#\	-ni-
=29	=29	=29	=29	=29	=29	=29	=29
4A\	.	4dd\	.	4.ff#\	.	4.ff#\	-ge-
4AA/	.	4cc#X\	.	.	.	.	.
.	.	.	.	8ee\	.	8ee\	-ni-
!	!	!	!	!LO:LB:g=original	!	!	!
4AA/	.	2cc#\	.	2ee\	.	2ee\	-tum
4r	.	.	.	.	.	.	.
=30	=30	=30	=30	=30	=30	=30	=30
4A\	.	8e/L	.	4gg|\	.	4gg\	et
.	.	8a/	.	.	.	.	.
4A\	.	8g/	f	4ee|\	.	4ee\	ex
.	.	8a/J	.	.	.	.	.
*	*	*rep	*	*	*	*	*
4A\	.	8e/L	.	4cc#X|\	.	4cc#X\	pa-
.	.	8a/	.	.	.	.	.
!	!	!	!	!	!	!LO:SIC:v:l:s=tre	!
4A\	.	8g/	.	4a|\	.	4a\	-trem
.	.	8a/J	.	.	.	.	.
*	*	*Xrep	*	*	*	*	*
=31	=31	=31	=31	=31	=31	=31	=31
4A\	.	8e/L	.	4gg'\	.	4gg\	Na-
.	.	8a/	.	.	.	.	.
4A\	.	8g/	.	4ee'\	.	4ee\	-tum
.	.	8a/J	.	.	.	.	.
*	*	*rep	*	*	*	*	*
4A\	.	8e/L	.	4cc#X'\	.	4cc#X\	an-
.	.	8a/	.	.	.	.	.
4A\	.	8g/	.	4a|\	.	4a\	-te
.	.	8a/J	.	.	.	.	.
*	*	*Xrep	*	*	*	*	*
=32	=32	=32	=32	=32	=32	=32	=32
4F#\	.	2f#/	p	2dd\	.	2dd\	Om-
4r	.	.	.	.	.	.	.
4r	.	4f#/	.	4dd\	.	4dd\	-ni-
4F#\	.	4f#/	.	4dd\	.	4dd\	-a
!	!	!	!	!	!	!LO:PB:g=original	!
=33	=33	=33	=33	=33	=33	=33	=33
4F#\	.	4.a/	.	4.ccn\	.	4.ccn\	ſae-
4F#\	.	.	.	.	.	.	.
.	.	8a/	.	8cc\	.	8cc\	-cu-
4F#\	.	2a/	.	2cc\	.	2cc\	-la
4F#\	.	.	.	.	.	.	.
!LO:LB:g=original	!	!	!	!	!	!	!
=34	=34	=34	=34	=34	=34	=34	=34
4G\	.	4b\	.	4b\	.	4b\	De-
4r	.	4b\	.	4dd#X\	.	4dd#X\	.
2r	.	4b\	.	4ee\	.	4ee\	-um
.	.	4b\	.	4ff#\	.	4ff#\	de
=35	=35	=35	=35	=35	=35	=35	=35
4r	.	4b\	.	4gg\	.	4gg\	De-
!LO:SIC:v:s=4E\	!	!	!	!	!	!	!
4A\	.	4b\	.	4ee\	.	4ee\	-o.
!LO:SIC:v:s=4E\	!	!	!	!	!	!	!
4A\	.	4b\	.	4r	.	2r	.
!LO:SIC:v:s=4E\	!	!	!	!	!	!	!
4A\	.	4b\	.	4ee\	.	.	.
=36	=36	=36	=36	=36	=36	=36	=36
4A\	.	4a/	.	4a/	.	4a\	Lu-
4r	.	4a/	.	4cc#X/	.	4cc#X\	.
2r	.	4a/	.	4dd/	.	4dd\	-men
.	.	4a/	.	4ee/	.	4ee\	de
=37	=37	=37	=37	=37	=37	=37	=37
4r	.	4a/	.	4ff#\	.	4ff#\	lu-
4D\	.	4a/	.	4dd\	.	4ff#\	-mi-
4D\	.	4a/	.	4r	.	4dd\	-ne
4D\	.	4a/	.	4dd\	.	4r	.
=38	=38	=38	=38	=38	=38	=38	=38
4D\	.	2a/	.	2ff#\	.	2dd\	de-
4D\	.	.	.	.	.	.	.
4D\	.	4a/	.	4ff#\	.	4dd\	-um
4D\	.	4a/	.	4ff#\	.	4dd\	de
!	!	!LO:LB:g=original	!	!	!	!	!
=39	=39	=39	=39	=39	=39	=39	=39
4G\	.	4b/	.	4gg|\	.	4gg\	De-
4E\	.	4g/	.	4ee|\	.	4ee\	-o
4A\	.	4f#/	.	4dd|\	.	4dd\	Ve-
4AA/	.	4e/	.	4cc#X|\	.	4cc#X\	.
=40	=40	=40	=40	=40	=40	=40	=40
4D\	.	2f#/	.	2dd\	.	2dd\	-ro
4r	.	.	.	.	.	.	.
2r	.	8b\L	.	8dd\L	.	2r	.
.	.	8ccn\	.	8ee\	.	.	.
.	.	8b\	.	8dd\	.	.	.
.	.	8a\J	.	8ccn\J	.	.	.
=41	=41	=41	=41	=41	=41	=41	=41
!	!	!	!	!	!	!LO:TX:a:t=8	!
4GG/	.	8d/L	.	8b\L	.	00r	.
.	.	8b/	.	8dd\	.	.	.
4G\	.	8g/	f	8gg\	f	.	.
.	.	8b/J	.	8bb\J	.	.	.
*	*	*rep	*	*	*	*	*
4GG/	.	8d/L	.	8ddd\L	.	.	.
.	.	8b/	.	8bb\	.	.	.
4G\	.	8g/	.	8gg\	.	.	.
.	.	8b/J	.	8dd\J	.	.	.
*	*	*Xrep	*	*	*	*	*
!	!	!	!	!LO:LB:g=original	!	!	!
=42	=42	=42	=42	=42	=42	=42	=42
4D\	.	2a/	.	2cc\	.	.	.
4D\	.	.	.	.	.	.	.
4D\	.	8a/L	.	(8cc\L	.	.	.
.	.	(8b/	.	8dd\	.	.	.
4D\	.	8a/	.	8cc\	.	.	.
.	.	8g/J)	.	8b\J)	.	.	.
=43	=43	=43	=43	=43	=43	=43	=43
4D\	.	8d/L	.	(8a\L	.	.	.
.	.	8a/	.	8cc\	.	.	.
4D\	.	8f#/	.	8ff#\	.	.	.
.	.	8a/J	.	8aa\J)	.	.	.
*	*	*rep	*	*	*	*	*
4D\	.	8d/L	.	8ccc\L	.	.	.
.	.	8a/	.	(8aa\	.	.	.
4D\	.	8f#/	.	8ff#\	.	.	.
.	.	8a/J	.	8dd\J)	.	.	.
*	*	*Xrep	*	*	*	*	*
!LO:PB:g=original	!	!	!	!	!	!	!
=44	=44	=44	=44	=44	=44	=44	=44
4G\	.	2g/	.	8b/L	.	.	.
.	.	.	.	8d/	.	.	.
4r	.	.	.	8a/	.	.	.
.	.	.	.	8b/J	.	.	.
4D\	.	(2a/	.	8cc/L	.	.	.
.	.	.	.	8d/	.	.	.
4r	.	.	.	8a/	.	.	.
.	.	.	.	8cc/J	.	.	.
=45	=45	=45	=45	=45	=45	=45	=45
4G\	.	(2b/)	.	8dd\L	.	00r	.
.	.	.	.	8b\	.	.	.
4r	.	.	.	8dd\	.	.	.
.	.	.	.	8gg\J	.	.	.
4c\	.	2cc/)	.	8ee\L	.	.	.
.	.	.	.	8cc\	.	.	.
4r	.	.	.	8ee\	.	.	.
.	.	.	.	8gg\J	.	.	.
=46	=46	=46	=46	=46	=46	=46	=46
4G\	.	4dd|\	.	(8ff#\L	.	.	.
.	.	.	.	8gg\	.	.	.
4r	.	4b|\	.	8dd\	.	.	.
.	.	.	.	8ee\J)	.	.	.
2r	.	4a|\	.	8cc\L	.	.	.
.	.	.	.	(8dd\	.	.	.
.	.	4f#|\	.	8b\	.	.	.
.	.	.	.	8cc\J)	.	.	.
=47	=47	=47	=47	=47	=47	=47	=47
!	!	!LO:SIC:v:s=8a/L	!	!	!	!	!
4D\	.	8g/L	.	8a\L	.	.	.
.	.	8ee/	.	8ee\	.	.	.
4D\	.	8cc/	.	8cc\	.	.	.
.	.	8a/J	.	8a\J	.	.	.
4D\	.	4g/	.	4g/	.	.	.
4D\	.	4f#/	.	4f#/	.	.	.
=48	=48	=48	=48	=48	=48	=48	=48
4G\	.	4g/	.	4g/	.	.	.
4D\	.	4d/	.	4d/	.	.	.
4GG/	.	4G/	.	4G/	.	.	.
4r	.	4r	.	4r	.	.	.
=49	=49	=49	=49	=49	=49	=49	=49
4G\	.	4.b\	p	4.dd\	pp	4.dd\	ge-
4r	.	.	.	.	.	.	.
.	.	8a\	.	8cc\	.	8cc\	-ni-
!	!	!	!	!	!	!LO:LB:g=original	!
4r	.	4g/	.	4b\	.	4b\	-tum
4D\	.	4b/	.	4dd\	.	4dd\	non
=50	=50	=50	=50	=50	=50	=50	=50
4D\	.	4b/	.	4dd\	.	4dd\	fac-
4F#\	.	4a/	.	4cc\	.	4cc\	.
4G\	.	4g/	.	4b\	.	4b\	-tum
4r	.	4r	.	4r	.	4r	.
!	!	!LO:LB:g=original	!	!	!	!	!
=51	=51	=51	=51	=51	=51	=51	=51
4G\	.	4g/	.	4b\	.	4b\	Con-
4G\	.	4b/	.	4dd\	.	4dd\	-sub-
4D\	.	4a/	.	4cc\	.	4cc\	-stan-
4D\	.	4f#/	.	4a\	.	4a\	-ti-
=52	=52	=52	=52	=52	=52	=52	=52
4G\	.	4g/	.	4b\	.	4b\	-a-
4r	.	4g/	.	4b\	.	4b\	-lem
4r	.	4b/	.	4dd\	.	4dd\	Pat-
4G\	.	4b/	.	4dd\	.	4dd\	-ri
!LO:LB:g=original	!	!	!	!	!	!	!
=53	=53	=53	=53	=53	=53	=53	=53
!	!	!	!	!	!	!LO:SIC:v:l:s=per	!
4c\	.	2cc\	.	2ee\	.	2ee\	por
4C/	.	.	.	.	.	.	.
4C/	.	2cc\	.	2ee\	.	2ee\	qvem
4C/	.	.	.	.	.	.	.
!	!	!	!	!LO:LB:g=original	!	!	!
=54	=54	=54	=54	=54	=54	=54	=54
4C/	.	4.cc\	.	4.ee\	.	4.ee\	Om-
4C/	.	.	.	.	.	.	.
.	.	8b\	.	8dd\	.	8dd\	-ni-
4C/	.	4a\	.	2cc\	.	4cc\	-a
4C/	.	4r	.	.	.	4r	.
=55	=55	=55	=55	=55	=55	=55	=55
!	!	!	!	!	!	!LO:SIC:v:l:s=per	!
4G\	.	2b\	.	2dd\	.	2dd\	por
4GG/	.	.	.	.	.	.	.
4GG/	.	2b\	.	2dd\	.	2dd\	qvem
4GG/	.	.	.	.	.	.	.
=56	=56	=56	=56	=56	=56	=56	=56
4GG/	.	4.b\	.	4.dd\	.	4.dd\	Om-
4GG/	.	.	.	.	.	.	.
.	.	8a\	.	8cc\	.	8cc\	-ni-
4GG/	.	4g/	.	2b\	.	4b\	-a
4GG/	.	4r	.	.	.	4r	.
!	!	!	!	!	!	!LO:LB:g=original	!
=57	=57	=57	=57	=57	=57	=57	=57
4G\	.	4g/	.	4b\	.	4b\	fa-
4G\	.	4b/	.	4dd\	.	4dd\	.
4F#\	.	4a/	.	4cc\	.	4cc\	.
4D\	.	4f#/	.	4a\	.	4a\	-cta
=58	=58	=58	=58	=58	=58	=58	=58
4G\	.	2g/	.	2b\	.	2b\	ſunt
4r	.	.	.	.	.	.	.
4r	.	8r	.	8r	.	2r	.
.	.	8g/L	.	8b|\L	.	.	.
4G\	.	8a/	f	8cc|\	.	.	.
.	.	8b/J	.	8dd|\J	.	.	.
=59	=59	=59	=59	=59	=59	=59	=59
!	!	!	!	!	!LO:DY:t=for&colon;	!LO:TX:a:t=12.	!
4c\	.	4r	.	8ee\L	f	00r	.
.	.	.	.	8cc\	.	.	.
4r	.	4cc 4e/	.	8b\	.	.	.
.	.	.	.	8cc\J	.	.	.
4r	.	4cc 4e/	.	8g/L	.	.	.
.	.	.	.	8cc/	.	.	.
4c\	.	4cc 4e/	.	8b/	.	.	.
.	.	.	.	8cc/J	.	.	.
=60	=60	=60	=60	=60	=60	=60	=60
4r	.	4r	.	8cc\L	.	.	.
.	.	.	.	8b\	.	.	.
4c\	.	4cc 4e/	.	8cc\	.	.	.
.	.	.	.	8dd\J	.	.	.
4c\	.	4cc 4e/	.	8ee\L	.	.	.
.	.	.	.	8ff#\	.	.	.
4c\	.	4cc 4e/	.	8gg\	.	.	.
.	.	.	.	8ee\J	.	.	.
!LO:LB:g=original	!	!	!	!	!	!	!
=61	=61	=61	=61	=61	=61	=61	=61
4G\	.	4r	.	8dd\L	.	.	.
.	.	.	.	8b\	.	.	.
4r	.	4b 4d/	.	8a\	.	.	.
.	.	.	.	8b\J	.	.	.
4r	.	4b 4d/	.	8g/L	.	.	.
.	.	.	.	8b/	.	.	.
4G\	.	4b 4d/	.	8a/	.	.	.
.	.	.	.	8b/J	.	.	.
=62	=62	=62	=62	=62	=62	=62	=62
4G\	.	4r	.	8g/L	.	.	.
.	.	.	.	8a/	.	.	.
4G\	.	4b 4d/	.	8b/	.	.	.
.	.	.	.	8cc/J	.	.	.
4G\	.	4b 4d/	.	8dd/L	.	.	.
.	.	.	.	8b/	.	.	.
4G\	.	4b 4d/	.	8a/	.	.	.
.	.	.	.	8g/J	.	.	.
=63	=63	=63	=63	=63	=63	=63	=63
*tremolo	*	*tremolo	*	*	*	*	*
*2\right	*	*	*	*	*	*	*
8D\L	.	8d/L	.	8f#|/L	.	00r	.
8D\	.	8d/	.	8d|/	.	.	.
8D\	.	8d/	.	8g|/	.	.	.
8D\J	.	8d/J	.	8d|/J	.	.	.
8D\L	f	8d/L	.	8a|/L	.	.	.
8D\	.	8d/	.	8d|/	.	.	.
8D\	.	8d/	.	8b|/	.	.	.
8D\J	.	8d/J	.	8d|/J	.	.	.
=64	=64	=64	=64	=64	=64	=64	=64
8D\L	.	8d/L	.	8cc|/L	.	.	.
8D\	.	8d/	.	8d|/	.	.	.
8D\	.	8d/	.	8dd|/	.	.	.
8D\J	.	8d/J	.	8d|/J	.	.	.
8D\L	.	8d/L	.	8ee|/L	.	.	.
8D\	.	8d/	.	8d|/	.	.	.
8D\	.	8d/	.	8ff#|/	.	.	.
8D\J	.	8d/J	.	8d|/J	.	.	.
*Xtremolo	*	*Xtremolo	*	*	*	*	*
!	!	!LO:LB:g=original	!	!LO:LB:g=original	!	!	!
=65	=65	=65	=65	=65	=65	=65	=65
4G\	p	8b\L	.	8gg\L	.	.	.
.	.	8dd\	.	8bb\	.	.	.
4r	.	8b\	.	8gg\	.	.	.
.	.	8a\J	.	8ff#\J	.	.	.
4r	.	4.cc\	.	4.ee\	.	.	.
4GG/	.	.	.	.	.	.	.
.	.	8b\	.	8dd\	.	.	.
=66	=66	=66	=66	=66	=66	=66	=66
4D\	.	8a/L	.	8cc\L	.	.	.
.	.	8cc/	.	8ee\	.	.	.
4r	.	8a/	.	8cc\	.	.	.
.	.	8g/J	.	8b\J	.	.	.
4r	.	4.c/	.	4.a/	.	.	.
4D\	.	.	.	.	.	.	.
.	.	8B/	.	8g/	.	.	.
=67	=67	=67	=67	=67	=67	=67	=67
4D|\	f	4f#/	.	8f#/L	.	00r	.
.	.	.	.	8d/	.	.	.
4F#|\	.	4a/	.	8cc/	.	.	.
.	.	.	.	8a/J	.	.	.
4D|\	.	4g/	.	8g/L	.	.	.
.	.	.	.	8d/	.	.	.
4G|\	.	4b/	.	8dd/	.	.	.
.	.	.	.	8b/J	.	.	.
=68	=68	=68	=68	=68	=68	=68	=68
4D\	.	4a/	.	8cc\L	.	.	.
.	.	.	.	8a\	.	.	.
4A\	.	4cc/	.	8aa\	.	.	.
.	.	.	.	8cc\J	.	.	.
4D\	.	4b/	.	8b\L	.	.	.
.	.	.	.	8g\	.	.	.
4B\	.	4g/	.	8ee\	.	.	.
.	.	.	.	8b\J	.	.	.
=69	=69	=69	=69	=69	=69	=69	=69
4G\	.	8a/L	.	8cc\L	.	.	.
.	.	8f#/J	.	8a\J	.	.	.
!	!	!LO:TUP:b	!	!LO:TUP:problem=klamra łukowa	!	!	!
!	!	!LO:N:vis=24	!	!LO:N:vis=24	!	!	!
4C/	.	12cc/L	.	12ee\L	.	.	.
!	!	!LO:N:vis=24	!	!LO:N:vis=24	!	!	!
.	.	12b/	.	12dd\	.	.	.
!	!	!LO:N:vis=24	!	!LO:N:vis=24	!	!	!
.	.	12a/J	.	12cc\J	.	.	.
!LO:LB:g=original	!	!	!	!	!	!	!
4D|/	.	4g/	.	4b/	.	.	.
4DD|/	.	4f#/	.	4a/	.	.	.
=70	=70	=70	=70	=70	=70	=70	=70
!LO:TX:a:t=P:problem=mixed beam	!	!	!	!	!	!	!
8GG/L	.	8g/L	.	8b\L	.	.	.
8G\J	.	8g/	.	8b\	.	.	.
8D/L	.	8a/	.	8cc\	.	.	.
8BB/J	.	8b/J	.	8dd\J	.	.	.
4GG/	.	4g/	.	4b/	.	.	.
4r	.	4r	.	4r	.	.	.
=71	=71	=71	=71	=71	=71	=71	=71
!	!LO:DY:t=pp&colon;	!	!	!	!LO:DY:t=pp	!	!
4r	pp	4b\	pp	4dd\	pp	4dd\	Qvi
4G|\	.	4b\	.	4gg\	.	4gg\	pro-
4G|\	.	4a\	.	4ff#\	.	4ff#\	-pter
4G|\	.	4b\	.	4gg\	.	4gg\	nos
=72	=72	=72	=72	=72	=72	=72	=72
4r	.	4.cc\	.	4.ee\	.	4.ee\	Ho-
4F#|\	.	.	.	.	.	.	.
.	.	8b\	.	8dd\	.	8dd\	-mi-
4F#|\	.	[2b\	.	2dd\	.	2dd\	-nes
4F#|\	.	.	.	.	.	.	.
=73	=73	=73	=73	=73	=73	=73	=73
4r	.	(1b]	.	2dd\	.	2dd\	et
4G\	.	.	.	.	.	.	.
4G\	.	.	.	4bb\	.	4bb\	pro-
4G\	.	.	.	4dd\	.	4dd\	-pter
=74	=74	=74	=74	=74	=74	=74	=74
4r	.	(>1a)	.	2cc\	.	2cc\	No-
4D\	.	.	.	.	.	.	.
4D\	.	.	.	4aa\	.	4aa\	-stram
4D\	.	.	.	4cc\	.	4cc\	ſa-
!	!	!	!	!LO:LB:g=original	!	!	!
=75	=75	=75	=75	=75	=75	=75	=75
4r	.	[>1g)	.	2b\	.	2b\	-lu-
4GG/	.	.	.	.	.	.	.
4GG/	.	.	.	4gg\	.	4gg\	-tem
4GG/	.	.	.	4b\	.	4b\	de-
!LO:LB:g=original	!	!	!	!	!	!	!
=76	=76	=76	=76	=76	=76	=76	=76
4GG/	.	4g/]	.	4b\	.	4b\	-scen-
4D/	.	4f#/	.	4a\	.	4a\	-dit
2r	.	2rg	.	16f#/LL	.	2r	.
.	.	.	.	16d/	.	.	.
.	.	.	.	16f#/	.	.	.
.	.	.	.	16a/JJ	.	.	.
.	.	.	.	4dd\	.	.	.
!	!	!	!	!	!	!LO:LB:g=original	!
=77	=77	=77	=77	=77	=77	=77	=77
4r	.	2b\	f	2dd\	.	2dd\	de-
4G\	.	.	.	.	.	.	.
4GG/	.	4b\	.	4dd\	.	4dd\	-scen-
4G\	.	4b\	.	4dd\	.	4dd\	-dit
=78	=78	=78	=78	=78	=78	=78	=78
*	*	*	*	*	*	*	*ij
4r	.	2cc\	.	2ee\	.	2ee\	de-
4c\	.	.	.	.	.	.	.
4C/	.	4cc\	.	4ee\	.	4ee\	-scen-
4c\	.	4cc\	.	4ee\	.	4ee\	-dit
*	*	*	*	*	*	*	*Xij
!	!	!LO:LB:g=original	!	!	!	!	!
=79	=79	=79	=79	=79	=79	=79	=79
4r	.	2a\	.	2ff#\	.	2ff#\	de
4D\	.	.	.	.	.	.	.
4F#\	.	4a/	.	4ff#\	.	4ff#\	.
4D\	.	4a/	.	4ff#\	.	4ff#\	Cae-
=80	=80	=80	=80	=80	=80	=80	=80
4G\	.	4b\	.	4gg\	.	4gg\	.
4GG/	.	4b\	.	4gg\	.	4gg\	-lis.
!	!	!LO:TX:a:t=80.	!	!LO:TX:a:t=80.	!	!LO:TX:a:t=80.	!
2r	.	2rg	.	2r	.	2r	.
!LO:LB:g=original	!	!	!	!	!	!	!
=81||	=81||	=81||	=81||	=81||	=81||	=81||	=81||
*k[]	*	*k[]	*	*k[]	*	*k[]	*
*M3/4	*	*M3/4	*	*M3/4	*	*M3/4	*
*tremolo	*	*	*	*	*	*	*
!LO:TX:a:t=P:problem=brak kasownika przy kluczu	!	!LO:TX:a:t=P:problem=brak kasownika przy kluczu	!	!LO:TX:a:t=P:problem=brak kasownika przy kluczu	!	!	!
!LO:TX:a:t=Adagio.	!	!LO:TX:b:i:t=Et in Carnatus.	!	!LO:TX:b:i:t=Et In Carnatus	!	!LO:TX:a:t=P:problem=brak kasownika przy kluczu	!
!LO:TX:b:t=Et \nIn-\ncarnatus	!	!LO:TX:a:i:t=Adagio	!	!LO:TX:a:i:t=Adagio	!	!LO:TX:a:i:t=ada&colon;	!
8C/L	.	4ee\	.	4gg\	.	4gg\	Et
8C/	.	.	.	.	.	.	.
8C/	.	8ee\L	.	8gg\L	.	8gg\L	in-
8C/	.	(8dd\	.	(8ff\	.	8ff\J	.
8C/	.	8dd\	.	8ff\	.	8ff\L	-car.-
8C/J	.	8cc\J)	.	8ee\J)	.	8ee\J	.
*Xtremolo	*	*	*	*	*	*	*
=82	=82	=82	=82	=82	=82	=82	=82
8r	.	8cc\L	.	8ee\L	.	8ee\L	-na-
8GG/	.	8b\J	.	8dd\J	.	8dd\J	-tus
*tremolo	*	*	*	*	*	*	*
8GG/L	.	4.b\	.	4.dd\	.	4dd\	est.
8GG/	.	.	.	.	.	.	.
8GG/	.	.	.	.	.	4r	.
8GG/J	.	(16cc\LL	.	16ee\LL	.	.	.
.	.	16dd\JJ)	.	16ff\JJ	.	.	.
*Xtremolo	*	*	*	*	*	*	*
=83	=83	=83	=83	=83	=83	=83	=83
4F\	.	4ff\	.	4aa\	.	4aa\	et
4r	.	8ff\L	.	8aa\L	.	8aa\L	in-
.	.	(8ee\	.	(8gg\	.	8gg\J	.
4r	.	8ee\	.	8gg\	.	8gg\L	-car-
.	.	8dd\J)	.	8ff\J)	.	8ff\J	.
=84	=84	=84	=84	=84	=84	=84	=84
8r	.	8dd\L	.	8ff\L	.	8ff\L	-na-
8C|/L	.	8cc\J	.	8ee\J	.	8ee\J	-tus
8E|/	.	2cc\	.	2ee\	.	2ee\	est
8G|/	.	.	.	.	.	.	.
8c|/	.	.	.	.	.	.	.
!	!	!	!	!LO:TX:b:i:t=V. Cittiſsimo	!	!	!
8C|/J	.	.	.	.	.	.	.
!	!	!	!	!LO:PB:g=original	!	!LO:LB:g=original	!
=85	=85	=85	=85	=85	=85	=85	=85
4C/	.	4cc\	.	4ee\	.	4ee\	de
4r	.	(8ee\L	.	8gg\L	.	8gg\L	Spi-
.	.	8ff\	.	8aa\	.	8aa\J	.
4r	.	8dd\	.	8ff\	.	8ff\L	-ri-
.	.	8b\J)	.	8dd\J	.	8dd\J	-tu
=86	=86	=86	=86	=86	=86	=86	=86
8r	.	8cc\L	.	8ee\L	.	8ee\L	San-
8GG'/L	.	8b\J	.	8dd\J	.	8dd\J	.
8BB'/	.	2b\	.	2dd\	.	2dd\	-cto
8D'/	.	.	.	.	.	.	.
8BB'/	.	.	.	.	.	.	.
8GG'/J	.	.	.	.	.	.	.
=87	=87	=87	=87	=87	=87	=87	=87
!	!	!LO:TX:a:t=P:problem=takty 87-88 zapisane repetycją, wzięte w łuk	!	!LO:TX:a:t=P:problem=takty 87-88 zapisane repetycją, wzięte w łuk	!	!LO:TX:a:t=P:problem=takty 87-88 zapisane repetycją, wzięte w łuk, z adnotacją "bis"	!
4C/	.	4cc\yy	.	4ee\yy	.	4ee\yy	de
4r	.	(y8ee\Lyy	.	8gg\Lyy	.	8gg\Lyy	Spi-
.	.	8ff\yy	.	8aa\yy	.	8aa\Jyy	.
4r	.	8dd\yy	.	8ff\yy	.	8ff\Lyy	-ri-
.	.	8b\J)yy	.	8dd\Jyy	.	8dd\Jyy	-tu
=88	=88	=88	=88	=88	=88	=88	=88
8r	.	8cc\Lyy	.	8ee\Lyy	.	8ee\Lyy	San-
8GG|/L	.	8b\Jyy	.	8dd\Jyy	.	8dd\Jyy	.
8BB|/	.	2b\yy	.	2dd\yy	.	2dd\yy	-cto
8D|/	.	.	.	.	.	.	.
8BB|/	.	.	.	.	.	.	.
8GG|/J	.	.	.	.	.	.	.
!LO:LB:g=original	!	!	!	!	!	!	!
=89	=89	=89	=89	=89	=89	=89	=89
*tremolo	*	*	*	*	*	*	*
!LO:TX:a:t=P:problem=mixed beam	!	!	!	!	!	!	!
8GG/L	.	8.dd\L	.	8.ff\L	.	8.ff\L	ex
8G\	.	.	.	.	.	.	.
.	.	16cc\Jk	.	16ee\Jk	.	16ee\Jk	Ma-
8GG/	.	4b\	.	4dd\	.	4dd\	-ri-
8G\	.	.	.	.	.	.	.
8GG/	.	4b\	.	4dd\	.	4dd\	-a
8G\J	.	.	.	.	.	.	.
=90	=90	=90	=90	=90	=90	=90	=90
!LO:TX:a:t=P:problem=mixed beam	!	!	!	!	!	!	!
8GG/L	.	8b/L	.	8dd\L	.	8dd\L	Vir-
8G\	.	8a/J	.	8cc\J	.	8cc\J	-gi-
8GG/	.	2g/	.	2b\	.	2b\	-ne
8G\	.	.	.	.	.	.	.
8GG/	.	.	.	.	.	.	.
8G\J	.	.	.	.	.	.	.
=91	=91	=91	=91	=91	=91	=91	=91
!LO:TX:a:t=P:problem=mixed beam	!	!	!	!	!	!	!
8C/L	.	8.ee\L	.	8.gg\L	.	8.gg\L	ex
8c\	.	.	.	.	.	.	.
.	.	16dd\Jk	.	16ff\Jk	.	16ff\Jk	Ma-
8C/	.	4cc\	.	4ee\	.	4ee\	-ri-
8c\	.	.	.	.	.	.	.
8C/	.	4cc\	.	4ee\	.	4ee\	-a
8c\J	.	.	.	.	.	.	.
=92	=92	=92	=92	=92	=92	=92	=92
!LO:TX:a:t=P:problem=mixed beam	!	!	!	!	!	!	!
8C/L	.	8g/L	.	8ee\L	.	8ee\L	Vir-
8c\	.	8f/J	.	8dd\J	.	8dd\J	-gi-
8C/	.	2e/	.	2cc\	.	2cc\	-ne
8c\	.	.	.	.	.	.	.
8C/	.	.	.	.	.	.	.
8c\J	.	.	.	.	.	.	.
*Xtremolo	*	*	*	*	*	*	*
=93	=93	=93	=93	=93	=93	=93	=93
!	!	!	!	!L	!	!	!
4c\	.	4cc|\	.	4ee|\	.	4ee\	et
4B\	.	4dd|\	.	4ff|\	.	4ff\	ho-
4G\	.	4b|\	.	4dd|\	.	4dd\	-mo
=94	=94	=94	=94	=94	=94	=94	=94
*	*	*	*	*	*	*	*ij
4c\	.	4cc|\	.	4ee|\	.	4ee\	et
4B\	.	4dd|\	.	4ff|\	.	4ff\	ho-
4G\	.	4b|\	.	4dd|\	.	4dd\	-mo
*	*	*	*	*	*	*	*Xij
!	!	!LO:LB:g=original	!	!	!	!	!
=95	=95	=95	=95	=95	=95	=95	=95
8r	.	(8ee\L	.	(8gg\L	.	8gg\L	ho-
8G\	.	8ff\	.	8aa\	.	8aa\J	-mo
*tremolo	*	*	*	*	*	*	*
8G\L	.	8ee\	.	8gg\	.	8gg\L	fa-
8G\	.	8dd\	.	8ff\	.	8ff\J	.
8G\	.	8b\	.	8dd\	.	8dd\L	.
8G\J	.	8dd\J)	.	8ff\J)	.	8ff\J	.
*Xtremolo	*	*	*	*	*	*	*
!	!	!	!	!	!	!LO:LB:g=original	!
=96	=96	=96	=96	=96	=96	=96	=96
8c\L	.	8dd\L	.	8.ff\L	.	8.ff\L	-ctus
8G\	.	8cc\J	.	.	.	.	.
!	!	!	!	!LO:N:vis=8	!	!	!
.	.	.	.	16ee\Jk	.	16ee\Jk	.
8E\	.	2cc\	.	2ee\	.	2ee\	est.
8G\J	.	.	.	.	.	.	.
4C/	.	.	.	.	.	.	.
=97	=97	=97	=97	=97	=97	=97	=97
!LO:TX:a:t=P:problem=takty 97-100 zapisane repetycją	!	!LO:TX:a:t=P:problem=takty 97-100 zapisane repetycją, wzięte w łuk	!	!LO:TX:a:t=P:problem=takty 97-100 zapisane repetycją, wzięte w łuk	!	!	!
4c\yy	.	4cc|\yy	.	4ee|\yy	.	4ee\	et
4B\yy	.	4dd|\yy	.	4ff|\yy	.	4ff\	ho-
4G\yy	.	4b|\yy	.	4dd|\yy	.	4dd\	-mo
=98	=98	=98	=98	=98	=98	=98	=98
*	*	*	*	*	*	*	*ij
4c\yy	.	4cc|\yy	.	4ee|\yy	.	4ee\	et
4B\yy	.	4dd|\yy	.	4ff|\yy	.	4ff\	ho-
4G\yy	.	4b|\yy	.	4dd|\yy	.	4dd\	-mo
*	*	*	*	*	*	*	*Xij
!	!	!LO:LB:g=original	!	!	!	!	!
=99	=99	=99	=99	=99	=99	=99	=99
8ryy	.	(y8ee\Lyy	.	(y8gg\Lyy	.	8gg\L	ho-
8G\yy	.	8ff\yy	.	8aa\yy	.	8aa\J	-mo
*tremolo	*	*	*	*	*	*	*
8G\Lyy	.	8ee\yy	.	8gg\yy	.	8gg\L	fa-
8G\yy	.	8dd\yy	.	8ff\yy	.	8ff\J	.
8G\yy	.	8b\yy	.	8dd\yy	.	8dd\L	.
8G\Jyy	.	8dd\J)yy	.	8ff\J)yy	.	8ff\J	.
*Xtremolo	*	*	*	*	*	*	*
=100	=100	=100	=100	=100	=100	=100	=100
8c\Lyy	.	8dd\Lyy	.	8.ff\Lyy	.	8.ff\L	-ctus
8G\yy	.	8cc\Jyy	.	.	.	.	.
!	!	!	!	!LO:N:vis=8	!	!	!
.	.	.	.	16ee\Jkyy	.	16ee\Jk	.
8E\yy	.	2cc\yy	.	2ee\yyyy	.	2ee\	est
8G\Jyy	.	.	.	.	.	.	.
!	!	!LO:TX:a:t=20.	!	!LO:TX:a:t=20.	!	!LO:TX:a:t=20.	!
4C/yy	.	.	.	.	.	.	.
!LO:LB:g=original	!	!	!	!	!	!	!
=101||	=101||	=101||	=101||	=101||	=101||	=101||	=101||
*k[f#]	*	*k[f#]	*	*k[f#]	*	*k[f#]	*
*M2/2	*	*M2/2	*	*M2/2	*	*M2/2	*
*met(c|)	*	*met(c|)	*	*met(c|)	*	*met(c|)	*
!	!	!	!	!LO:TX:a:i:t=allo.	!	!	!
!LO:TX:b:t=Et \nvitam.	!	!LO:TX:a:i:t=allo.	!	!LO:TX:b:i:t=Et Vitam	!	!	!
!LO:TX:a:t=Allo.	!	!LO:TX:b:i:t=Et Vitam.	!	!	!	!LO:TX:a:i:t=allo.	!
!LO:TX:a:t=P:problem=oznaczenie metrum w postaci przekreślonej dwójki	!	!	!	!LO:TX:a:t=P:problem=oznaczenie metrum w postaci przekreślonej dwójki	!	!LO:TX:a:t=P:problem=oznaczenie metrum w postaci przekreślonej dwójki	!
2G\	.	2b/	.	2dd\	.	2dd\	Et
2G\	.	2b/	.	2dd\	.	2dd\	Vi-
=102	=102	=102	=102	=102	=102	=102	=102
2G\	.	2g/	.	4b\	.	2b\	-tam
.	.	.	.	4cc\	.	.	.
2r	.	2rg	.	4dd\	.	2r	.
.	.	.	.	4b\	.	.	.
=103	=103	=103	=103	=103	=103	=103	=103
2A\	.	2cc\	.	2ee\	.	2ee\	Ven-
2A\	.	2cc\	.	2ee\	.	2ee\	-tu-
!	!	!	!	!LO:LB:g=original	!	!	!
=104	=104	=104	=104	=104	=104	=104	=104
2A\	.	2a/	.	2cc\	.	2cc\	-ri
2r	.	2rg	.	2r	.	2r	.
=105	=105	=105	=105	=105	=105	=105	=105
2F#\	.	2a/	.	2cc\	.	2cc\	et
2F#\	.	2a/	.	2cc\	.	2cc\	vi-
!	!	!	!	!	!	!LO:LB:g=original	!
=106	=106	=106	=106	=106	=106	=106	=106
2F#\	.	2f#/	.	2a/	.	2a\	-tam
2r	.	2r	.	2rg	.	2r	.
=107	=107	=107	=107	=107	=107	=107	=107
!	!	!LO:TX:a:t=2	!	!	!	!	!
2G\	.	0r	.	2dd\	.	2dd\	Ven-
2G\	.	.	.	2dd\	.	2dd\	-tu-
=108	=108	=108	=108	=108	=108	=108	=108
2G\	.	.	.	2b\	.	2b\	-ri
2r	.	.	.	2rg	.	2r	.
=109	=109	=109	=109	=109	=109	=109	=109
2G|\	.	2g|/	f	2g/	.	2g/	et
2D|\	.	2d|/	.	2d/	.	2d/	vi-
=110	=110	=110	=110	=110	=110	=110	=110
2B|\	.	2b|/	.	2b/	.	2b\	-tam
!LO:SIC:v:s=2G'\	!	!	!	!	!	!	!
2F#|\	.	2g|/	.	2g/	.	2g\	ven-
!LO:LB:g=original	!	!	!	!	!	!	!
=111	=111	=111	=111	=111	=111	=111	=111
2G|\	.	2g|/	.	2g/	.	2g/	-tu-
2D|\	.	2d|/	.	2d/	.	2d/	-ri
=112	=112	=112	=112	=112	=112	=112	=112
2B|\	.	2b|/	.	2b/	.	4b\	ſae-
.	.	.	.	.	.	4b\	-cu-
!LO:SIC:v:s=2G'\	!	!	!	!	!	!	!
2F#|\	.	2g|/	.	2g/	.	2g/	-li
=113	=113	=113	=113	=113	=113	=113	=113
2A|\	.	2a|/	.	2a/	.	2a\	et
2D|\	.	2d|/	.	2d/	.	2d/	vi-
=114	=114	=114	=114	=114	=114	=114	=114
2c|\	.	2cc|\	.	2cc\	.	2cc\	-tam
2A|\	.	2a|/	.	2a/	.	2a\	ven-
=115	=115	=115	=115	=115	=115	=115	=115
2A|\	.	2a|/	.	2a/	.	2a\	-tu-
2D|\	.	2d|/	.	2d/	.	2d/	-ri
=116	=116	=116	=116	=116	=116	=116	=116
2c|\	.	2cc|\	.	4cc\	.	4cc\	ſae-
.	.	.	.	4cc\	.	4cc\	-cu-
2A|\	.	2a|\	.	4a\	.	2a\	-li
.	.	.	.	4r	.	.	.
=117	=117	=117	=117	=117	=117	=117	=117
2G|\	.	4b\	.	4b\	.	4b\	a-
.	.	(4dd\	.	4dd\	.	4dd\	.
2G|\	.	4b\	.	2gg\	.	2gg\	-men
.	.	4dd\)	.	.	.	.	.
=118	=118	=118	=118	=118	=118	=118	=118
2G|\	.	4b\	.	2r	.	2r	.
.	.	(4dd\	.	.	.	.	.
2G|\	.	4b\	.	2b/	.	2b\	a-
.	.	4dd\)	.	.	.	.	.
!	!	!LO:LB:g=original	!	!	!	!LO:LB:g=original	!
=119	=119	=119	=119	=119	=119	=119	=119
2F#|\	.	(4cc\	.	2r	.	2r	.
.	.	4dd\)	.	.	.	.	.
2A|\	.	(4cc\	.	2cc/	.	2cc\	.
.	.	4dd\)	.	.	.	.	.
=120	=120	=120	=120	=120	=120	=120	=120
2F#|\	.	4cc\	.	2a/	.	2a\	.
.	.	4dd\	.	.	.	.	.
2D|\	.	4cc\	.	2f#/	.	2f#/	-men
.	.	4dd\	.	.	.	.	.
=121	=121	=121	=121	=121	=121	=121	=121
!	!	!LO:TX:a:t=P:problem=takty 121-124 zapisane repetycją, wzięte w łuk	!	!	!	!	!
2G|\	.	4b\yy	.	4b\	.	4b\	a-
.	.	(y4dd\yy	.	4dd\	.	4dd\	.
2G|\	.	4b\yy	.	2gg\	.	2gg\	-men
.	.	4dd\)yy	.	.	.	.	.
!LO:LB:g=original	!	!	!	!LO:LB:g=original	!	!	!
=122	=122	=122	=122	=122	=122	=122	=122
2G|\	.	4b\yy	.	2r	.	2r	.
.	.	(y4dd\yy	.	.	.	.	.
2G|\	.	4b\yy	.	2b/	.	2b\	a-
.	.	4dd\)yy	.	.	.	.	.
!	!	!LO:LB:g=original	!	!	!	!	!
=123	=123	=123	=123	=123	=123	=123	=123
2F#|\	.	(y4cc\yy	.	2r	.	2r	.
.	.	4dd\)yy	.	.	.	.	.
2A|\	.	(y4cc\yy	.	2cc/	.	2cc\	.
.	.	4dd\)yy	.	.	.	.	.
=124	=124	=124	=124	=124	=124	=124	=124
2F#|\	.	4cc\yy	.	2a/	.	2a\	.
.	.	4dd\yy	.	.	.	.	.
2D|\	.	4cc\yy	.	2f#/	.	2f#/	.
.	.	4dd\yy	.	.	.	.	.
=125	=125	=125	=125	=125	=125	=125	=125
2G\	.	4g/	.	4g/	.	2g/	-men
.	.	4g/	.	4g/	.	.	.
2r	.	4f#/	.	4a/	.	2r	.
.	.	4g/	.	4b/	.	.	.
=126	=126	=126	=126	=126	=126	=126	=126
!LO:TX:a:t=1	!	!	!	!	!	!LO:TX:a:t=1	!
1r	.	4a\	.	4cc|\	.	1r	.
.	.	4b\	.	4dd|\	.	.	.
.	.	4cc\	.	4ee|\	.	.	.
.	.	4a\	.	4ff#|\	.	.	.
=127	=127	=127	=127	=127	=127	=127	=127
2G\	.	4b\	.	4gg\	.	4gg\	a-
.	.	(4dd\	.	4dd\	.	4dd\	.
2GG/	.	4b\	.	2gg\	.	2gg\	-men
.	.	4dd\)	.	.	.	.	.
=128	=128	=128	=128	=128	=128	=128	=128
2G\	.	4b\	.	2r	.	2r	.
.	.	(4dd\	.	.	.	.	.
2G\	.	4b\	.	2b/	.	2b\	a-
.	.	4dd\)	.	.	.	.	.
=129	=129	=129	=129	=129	=129	=129	=129
2F#\	.	4cc\	.	2r	.	2r	.
.	.	4dd\	.	.	.	.	.
2A\	.	4cc\	.	2cc/	.	2cc\	.
.	.	4dd\	.	.	.	.	.
=130	=130	=130	=130	=130	=130	=130	=130
2F#\	.	4cc\	.	2a/	.	2a\	.
.	.	4dd\	.	.	.	.	.
2D\	.	4cc\	.	2f#/	.	2f#/	-men
.	.	4dd\	.	.	.	.	.
=131	=131	=131	=131	=131	=131	=131	=131
!LO:TX:a:t=P:problem=takty 131-134 zapisane repetycją	!	!LO:TX:a:t=P:problem=takty 131-134 zapisane repetycją, wzięte w łuk	!	!	!	!	!
2G\yy	.	4b\yy	.	4b\	.	4b\	a-
.	.	(y4dd\yy	.	4dd\	.	4dd\	.
2GG/yy	.	4b\yy	.	2gg\	.	2gg\	-men
.	.	4dd\)yy	.	.	.	.	.
!	!	!	!	!	!	!LO:LB:g=original	!
=132	=132	=132	=132	=132	=132	=132	=132
2G\yy	.	4b\yy	.	2r	.	2r	.
.	.	(y4dd\yy	.	.	.	.	.
2G\yy	.	4b\yy	.	2b/	.	2b\	a-
.	.	4dd\)yy	.	.	.	.	.
=133	=133	=133	=133	=133	=133	=133	=133
2F#\yy	.	4cc\yy	.	2r	.	2r	.
.	.	4dd\yy	.	.	.	.	.
2A\yy	.	4cc\yy	.	2cc/	.	2cc\	.
.	.	4dd\yy	.	.	.	.	.
=134	=134	=134	=134	=134	=134	=134	=134
2F#\yy	.	4cc\yy	.	2a/	.	2a/	.
.	.	4dd\yy	.	.	.	.	.
2D\yy	.	4cc\yy	.	2f#/	.	2f#/	-men
.	.	4dd\yy	.	.	.	.	.
=135	=135	=135	=135	=135	=135	=135	=135
2G\	.	2g/	.	2g/	.	2g/	a-
2GG/	.	2b 2d/	.	2gg\	.	2gg\	.
=136	=136	=136	=136	=136	=136	=136	=136
2GG/	.	2b 2d/	.	2gg 2b 2d/	.	2gg\	-men
!	!	!LO:TX:b:i:t=Offertorium \nV. Citto.	!	!	!	!	!
!	!	!LO:TX:a:t=36.	!	!LO:TX:a:t=36.	!	!LO:TX:a:t=36.	!
2r	.	2rg	.	2r	.	2r	.
==	==	==	==	==	==	==	==
*-	*-	*-	*-	*-	*-	*-	*-
!!!system-decoration: s1[(s2,s3,s4)]
!!!RDF**kern: > = above
!!!RDF**kern: | = vertical stroke
!!!RDF**dynam: p= "p."
!!!RDF**dynam: pp = "pp."
!!!RDF**dynam: f = "for."
!!!ENC: Kamil Watkowski
!!!END: 2020-04-24
!!!ENC: Marta Lawrence
!!!END: 2021-12-30
!!!YEC: Copyright 2022 Narodowy Instytut Fryderyka Chopina (https://polishscores.org)
!!!YEM: License CC-BY-4.0 (https://creativecommons.org/licenses/by/4.0)
